X: 254
T: Ben Küskünüm Feleğe
C: Baki Duyarlar
O: Turkey
F: http://compmusic.upf.edu/node/140
N: rast--sarki--duyek--ben_kuskunum--baki_duyarlar
N: makam= rast
N: form= sarki
N: usul= duyek = 8/4
M: 8/4
L: 1/16
K: C _1/4B ^f  
Q: 1/4=132
%%MIDI tuningsystem comma53
g3/2f/ e2 e3/2d/ c2 c3/2B/ A2 B3/2A/ G2  | \
w:  ARANAĞME  | 
G2 g14  | z2 g2 =f2 e2 d3e c3e  | 
w:   |   | 
d8 GA Bc d4  | z2 d2 c2 B2 A2 B2 c2 BA  | \
w:   |   | 
G6 AB c2 BA G4  | 
w:   | 
G2 c4 cB B2 A2 c2 cB  | cB A6 A3/2G/ FG FG A2  | \
w:  Ben  küs kü *  nüm  *  fe le  |  ğe  *  *  SAZ  | 
G2 B4 BA A3G B2 BA  | 
w:  düş tüm  bit *  mez  *  çi le  | 
BA G6 G3/2F/ EF EF G2  | G2 c4 cB B2 A2 c2 cB  | \
w:  ye   *  *  SAZ  |  Ben  küs kü *  nüm  *  fe le  | 
cB A6 A3/2G/ FG FG A2  | 
w:  ğe  *  *  SAZ  | 
G2 B4 BA A3G B2 BA  | BA G6 G3/2F/ EF EF G2  | \
w:  düş tüm  bit *  mez  *  çi le  |  ye   *  *  SAZ  | 
d2 g4 g2 g2 f2 a2 gf  | 
w:  Ne re le re  *  gi de  | 
fe f6 f2 g2 e2 d2  | e2 =f4 e2 g2 e2 e2 d2  | \
w:  yim   |  ka ra  *  bah *  tım   | 
z2 e4 d2 dc ed d4  | 
w:  gül *  me *  *  *  ye    | 
d2 g4 g2 g2 f2 a2 gf  | fe f6 f2 g2 e2 d2  | \
w:  Ne re le re  *  gi de  |  yim   | 
e2 =f4 e2 g2 e2 e2 d2  | 
w:  ka ra  *  bah *  tım   | 
z2 e4 d2 dc ed d4  | c2 c4 cB B2 A2 c2 cB  | \
w:  gül *  me *  *  *  ye    |  Ben  küs kü *  nüm  *  fe le  | 
cB A6 A3/2G/ FG FG A2  | 
w:  ğe  *  *  SAZ  | 
G2 B4 BA A3G B2 BA  | BA G6 G3/2F/ EF EF G2  | \
w:  düş tüm  bit *  mez  *  çi le  |  ye   *  *  SAZ  | 
c2 c4 cB B2 A2 c2 cB  | 
w:  Ben  küs kü *  nüm  *  fe le  | 
cB A6 A3/2G/ FG FG A2  | G2 B4 BA A3G B2 BA  | \
w:  ğe  *  *  SAZ  |  düş tüm  bit *  mez  *  çi le  | 
BA G6 G3/2F/ EF EF G2  | 
w:  ye   *  *  SAZ  | 
g3/2f/ e2 e3/2d/ c2 c3/2B/ A2 B3/2A/ G2  | \
w:  ARANAĞME  | 
G2 g14  | z2 g2 =f2 e2 d3e c3e  | 
w:   |   | 
d8 GA Bc d4  | z2 d2 c2 B2 A2 B2 c2 BA  | \
w:   |   | 
G6 AB c2 BA G4  | 
w:   | 
G2 c4 cB B2 A2 c2 cB  | cB A6 A3/2G/ FG FG A2  | \
w:  Ben  küs kü *  nüm  *  fe le  |  ğe  *  *  SAZ  | 
G2 B4 BA A3G B2 BA  | 
w:  düş tüm  bit *  mez  *  çi le  | 
BA G6 G3/2F/ EF EF G2  | G2 c4 cB B2 A2 c2 cB  | \
w:  ye   *  *  SAZ  |  Ben  küs kü *  nüm  *  fe le  | 
cB A6 A3/2G/ FG FG A2  | 
w:  ğe  *  *  SAZ  | 
G2 B4 BA A3G B2 BA  | BA G6 G3/2F/ EF EF G2  | \
w:  düş tüm  bit *  mez  *  çi le  |  ye   *  *  SAZ  | 
d2 g4 g2 g2 f2 a2 gf  | 
w:  Ne re le re  *  gi de  | 
fe f6 f2 g2 e2 d2  | e2 =f4 e2 g2 e2 e2 d2  | \
w:  yim   |  ka ra  *  bah *  tım   | 
z2 e4 d2 dc ed d4  | 
w:  gül *  me *  *  *  ye    | 
d2 g4 g2 g2 f2 a2 gf  | fe f6 f2 g2 e2 d2  | \
w:  Ne re le re  *  gi de  |  yim   | 
e2 =f4 e2 g2 e2 e2 d2  | 
w:  ka ra  *  bah *  tım   | 
z2 e4 d2 dc ed d4  | c2 c4 cB B2 A2 c2 cB  | \
w:  gül *  me *  *  *  ye    |  Ben  küs kü *  nüm  *  fe le  | 
cB A6 A3/2G/ FG FG A2  | 
w:  ğe  *  *  SAZ  | 
G2 B4 BA A3G B2 BA  | BA G6 G3/2F/ EF EF G2  | \
w:  düş tüm  bit *  mez  *  çi le  |  ye   *  *  SAZ  | 
c2 c4 cB B2 A2 c2 cB  | 
w:  Ben  küs kü *  nüm  *  fe le  | 
cB A6 A3/2G/ FG FG A2  | G2 B4 BA A3G B2 BA  | \
w:  ğe  *  *  SAZ  |  düş tüm  bit *  mez  *  çi le  | 
BA G6 G3/2F/ EF EF G2  | 
w:  ye   *  *  SAZ  | 
|


